X: 79
T: Polonäs, sexdregasamlingen del 2 nr 79
B: Sexdregasamlingen del 2 nr 79
S: efter Anders Larsson
O: Sexdrega, Västergötland
R: Slängpolska
Z: 2011-11-16 av Nils L
M: 3/4
L: 1/16
K: Bb
f2ga b4 f4 | g2fe d4 c4 | d4 e2d2 c2B2 | A2F2 B8 ::
K: Gm
d2d2 D2d2 D2d2 | c2c2 C2c2 C2c2 | B4 G2B2 G2B2 | A2G2 ^F2=E2 F2D2 |
d2d2 D2d2 D2d2 | c2c2 C2c2 C2c2 | B4 A2G2 A2^F2 | G4 G8 :|

